X:1
T:Kolding, 12.12.12.12
T:Kolding, 12.12.12.12
T:Peter Christian Lutkin, 1905
T:Public Domain Courtesy of the Cyber Hymnal™
C:Peter Christian Lutkin, 1905
Z:Public Domain
Z:Courtesy of the Cyber Hymnal™
%%score ( 1 2 ) ( 3 4 )
L:1/8
Q:1/4=100
M:4/4
K:Bb
V:1 treble 
V:2 treble 
V:3 bass 
V:4 bass 
V:1
 [Dd][Dd] | [Ed]2 [Ec][EB] [Ed]2 [Ec][Ec] | [Dc]2 [DB]D [DA]2 [DG][DG] | %3
 [EG]2 [EF]E [CG]2 [CF][CF] | [B,F]2 [B,E][B,D] [B,F]2 [DF][DF] | [D^F]2 [DF][DA] [Dd]2 [Fc][Fc] | %6
 [Gc]2 [GB][GA] [GB]2 [=Ec][Ec] | d2 [Ae][G=e] [Ff]>[Fd] [FB]2 | c (z [Ad]) B4 x2 |] %9
V:2
 x2 | x8 | x3 D x4 | x3 E x4 | x8 | x8 | x8 | (FB) x6 | G2 (c2 A) B4 |] %9
V:3
 [B,,F,][B,,F,] | [B,,G,]2 [B,,G,][B,,G,] [B,,A,]2 [B,,F,][B,,F,] | %2
 [B,,F,]2 [B,,F,][B,,F,] [B,,C]2 [B,,B,][B,,B,] | [C,A,]2 [C,A,][C,A,] [E,A,]2 [E,A,][E,A,] | %4
 [D,F,]2 [C,F,][B,,F,] [D,F,]2 [D,B,][D,B,] | [D,A,]2 [D,C][=E,C] [^F,A,]2 [D,A,][D,D] | %6
 [G,E]2 [G,D][G,C] [G,B,]2 [G,B,][G,B,] | [F,B,]2 [F,C][F,^C] [F,D]>[F,F] [F,D]2 | %8
 E (z [F,F]) [B,,B,D]4 x2 |] %9
V:4
 x2 | x8 | x8 | x8 | x8 | x8 | x8 | x8 | F,2 (E2 F,) x4 |] %9

